X:1
T:Summoned my labour to renew
T:Summoned my labour to renew - Crowcombe (Joel Thorne)
C:Joel Thorne
Z:p11, A Collection of Tunes,
Z:ed. Thomas Hawkes,
Z:Watchet: (1833)
%%score [ 1 2 3 4 ]
L:1/8
M:2/2
K:Eb
V:1 treble nm="SOPRANO" snm="S."
V:2 treble nm="ALTO" snm="A."
V:3 treble-8 transpose=-12 nm="TENOR" snm="T."
V:4 bass nm="BASS" snm="B."
V:1
 z4 E4 | E4 D4 | E4 F4 | G4 (A2 G2) | F4 B4 | (B2 c2) (d2 B2) | c4 (B2 =A2) | B8 | z4 B4 | c4 c4 | %10
w: What-|e’er the|Fa- ther|views as _|thine, He|views _ with _|gra- cious _|eyes;|Je-|sus, this|
w: Sum-|mon’d my|la- bour|to re- *|new, And|glad _ to _|act my _|part,|Lord,|in thy|
w: End|of my|ev- ’ry|ac- tion _|thou, In|all _ things _|thee I _|see|Ac-|cept my|
 B4 e4 | e4 d4 | e6 g2 | f2 e2 d2 c2 | B6 A2 | (G2 A2 B2) e2 | e4 d4 | e8 |] %18
w: mean ob-|la- tion|join To|thy great sa- cri-|fice, to|thy _ _ great|sa- cri-|fice.|
w: name my|work I|do, And|with a sin- gle|heart, and|with _ _ a|sin- gle|heart.|
w: hal- low’d|la- bour|now; I|do it un- to|thee, I|do _ _ it|un- to|thee.|
V:2
 z4 B,4 | B,4 (B,2 A,2) | G,4 B,4 | E4 (F2 E2) | D4 F4 | F4 F4 | E4 (D2 C2) | D8 | z4 E4 | E4 E4 | %10
w: What-|e’er the _|Fa- ther|views as _|thine, He|views with|gra- cious _|eyes;|Je-|sus, this|
w: Sum-|mon’d my _|la- bour|to re- *|new, And|glad to|act my _|part,|Lord,|in thy|
w: End|of my _|ev- ’ry|ac- tion _|thou, In|all things|thee I _|see|Ac-|cept my|
 E4 G4 | (F3 G) A4 | G6 z2 | z8 | z2 A2 G2 F2 | E2 D2 E2 G2 | F2 F2 F2 F2 | G8 |] %18
w: mean ob-|la- * tion|join||To thy great|sa- cri- fice, to|thy great sa- cri-|fice.|
w: name my|work _ I|do,||And with a|sin- gle heart, and|with a sin- gle|heart.|
w: hal- low’d|la- * bour|now;||I do it|un- to thee, I|do it un- to|thee.|
V:3
 z4 G4 | G4 F4 | E4 B4 | B4 c4 | B4 d4 | (B2 =A2) (B2 F2) | G4 F4 | F8 | z4 G4 | A4 A4 | B4 B4 | %11
w: What-|e’er the|Fa- ther|views as|thine, He|views _ with _|gra- cious|eyes;|Je-|sus, this|mean ob-|
w: Sum-|mon’d my|la- bour|to re-|new, And|glad _ to _|act my|part,|Lord,|in thy|name my|
w: End|of my|ev- ’ry|ac- tion|thou, In|all _ things _|thee I|see|Ac-|cept my|hal- low’d|
 B4 B4 | B6 z2 | z2 g2 f2 e2 | B2 d2 e4- | e6 B2 | B2 B2 B2 B2 | B8 |] %18
w: la- tion|join|To thy great|sa- cri- fice,|_ to|thy great sa- cri-|fice.|
w: work I|do,|And with a|sin- gle heart,|_ and|with a sin- gle|heart.|
w: la- bour|now;|I do it|un- to thee,|_ I|do it un- to|thee.|
V:4
 z4 E,4 | E,4 B,,4 | C,4 D,4 | E,4 A,,4 | B,,4 B,,4 | (D,2 C,2) (B,,2 D,2) | E,4 F,4 | B,,8 | %8
w: What-|e’er the|Fa- ther|views as|thine, He|views _ with _|gra- cious|eyes;|
w: Sum-|mon’d my|la- bour|to re-|new, And|glad _ to _|act my|part,|
w: End|of my|ev- ’ry|ac- tion|thou, In|all _ things _|thee I|see|
 z4 E,4 | A,4 A,4 | G,4 E,4 | B,4 B,,4 | E,6 z2 | %13
w: Je-|sus, this|mean ob-|la- tion|join|
w: Lord,|in thy|name my|work I|do,|
w: Ac-|cept my|hal- low’d|la- bour|now;|
"^Notes:The order of staves in the source is Alto - Tenor - Soprano - Bass, with the alto part printed in the treble clef an octaveabove sounding pitch.The alto F and G in bar 12, given here as a dotted crotchet and quaver, are printed in the source as a full-sized minim Fslurred to a small crotchet G.No text is underlaid in the source, although Hymns 91 and 321 (of the Collection of Hymns for the Use of the Peoplecalled Methodists) are specified and the pattern of repeated lines is indicated by line numbers printed between thestaves. The present text is that of Hymn 321: Hymn 91 is ‘Long have I seemed to serve thee, Lord’." z4 z2 A,2 | %14
w: To|
w: And|
w: I|
 G,2 F,2 E,2 D,2 | E,2 F,2 G,2 E,2 | B,4 B,,4 | E,8 |] %18
w: thy great sa- cri-|fice, to thy great|sa- cri-|fice.|
w: with a sin- gle|heart, and with a|sin- gle|heart.|
w: do it un- to|thee, I do it|un- to|thee.|

